images/logo.svg

<svg width="238" height="25" viewBox="0 0 238 25" fill="none" xmlns="http://www.w3.org/2000/svg">
<path d="M16.236 19.748H7.392L5.808 24.5H0.858L9.24 0.871999H14.619L22.803 24.5H17.787L16.236 19.748ZM14.916 15.689L11.847 6.449L8.745 15.689H14.916ZM30.7225 16.613V24.5H25.8715V0.871999H30.7225V11.267L39.9625 0.871999H45.7045L36.2665 11.036L46.6945 24.5H40.8865L33.1645 14.072L30.7225 16.613ZM66.5254 8H61.9714C61.8174 5.602 60.1674 4.403 57.0214 4.403C55.7674 4.403 54.7664 4.656 54.0184 5.162C53.2924 5.668 52.9294 6.35 52.9294 7.208C52.9294 8.044 53.2374 8.671 53.8534 9.089C54.4694 9.507 55.6574 9.881 57.4174 10.211L61.1134 10.904C63.2914 11.322 64.8754 12.037 65.8654 13.049C66.8554 14.061 67.3504 15.491 67.3504 17.339C67.3504 19.869 66.3824 21.794 64.4464 23.114C62.7744 24.28 60.5194 24.863 57.6814 24.863C54.4474 24.863 51.9834 24.115 50.2894 22.619C48.8154 21.321 48.0124 19.517 47.8804 17.207H52.5994C52.7754 19.715 54.5464 20.969 57.9124 20.969C59.4084 20.969 60.5744 20.705 61.4104 20.177C62.2684 19.627 62.6974 18.879 62.6974 17.933C62.6974 17.009 62.3564 16.294 61.6744 15.788C61.0144 15.282 59.8704 14.875 58.2424 14.567L54.9424 13.94C52.5444 13.5 50.8284 12.807 49.7944 11.861C48.7824 10.893 48.2764 9.507 48.2764 7.703C48.2764 5.261 49.1674 3.413 50.9494 2.159C52.4894 1.059 54.5794 0.508998 57.2194 0.508998C60.4094 0.508998 62.8074 1.235 64.4134 2.687C65.7994 3.963 66.5034 5.734 66.5254 8ZM84.7174 19.748H75.8734L74.2894 24.5H69.3394L77.7214 0.871999H83.1004L91.2844 24.5H86.2684L84.7174 19.748ZM83.3974 15.689L80.3284 6.449L77.2264 15.689H83.3974ZM105.177 15.755V24.5H100.326V15.755L92.4719 0.871999H97.8839L102.702 11.3L107.223 0.871999H112.635L105.177 15.755ZM142.176 11.63V24.5H139.272L138.678 21.134C136.94 23.62 134.575 24.863 131.583 24.863C128.107 24.863 125.324 23.587 123.234 21.035C121.408 18.791 120.495 16.019 120.495 12.719C120.495 8.825 121.683 5.745 124.059 3.479C126.127 1.499 128.756 0.508998 131.946 0.508998C134.982 0.508998 137.446 1.312 139.338 2.918C140.966 4.282 141.912 6.086 142.176 8.33H137.622C136.72 5.888 134.828 4.667 131.946 4.667C129.746 4.667 128.063 5.459 126.897 7.043C125.863 8.451 125.346 10.31 125.346 12.62C125.346 15.172 126.061 17.207 127.491 18.725C128.723 20.045 130.263 20.705 132.111 20.705C134.069 20.705 135.675 19.99 136.929 18.56C137.567 17.812 137.952 16.855 138.084 15.689H132.705V11.63H142.176ZM151.669 15.128V24.5H146.818V0.871999H159.49C161.492 0.871999 163.021 1.411 164.077 2.489C165.265 3.699 165.859 5.294 165.859 7.274C165.859 10.134 164.517 12.081 161.833 13.115C163.351 13.709 164.275 14.446 164.605 15.326C164.847 15.964 165.023 18.087 165.133 21.695C165.155 22.597 165.496 23.235 166.156 23.609V24.5H160.942C160.458 23.598 160.216 22.267 160.216 20.507C160.216 20.067 160.227 19.528 160.249 18.89C160.249 18.45 160.249 18.131 160.249 17.933C160.249 16.063 159.248 15.128 157.246 15.128H151.669ZM151.669 11.069H157.543C158.775 11.069 159.633 10.871 160.117 10.475C160.711 9.969 161.008 9.133 161.008 7.967C161.008 6.845 160.711 6.042 160.117 5.558C159.611 5.14 158.753 4.931 157.543 4.931H151.669V11.069ZM180.381 0.508998C183.725 0.508998 186.409 1.576 188.433 3.71C190.633 6.02 191.733 9.012 191.733 12.686C191.733 16.316 190.633 19.308 188.433 21.662C186.431 23.796 183.747 24.863 180.381 24.863C176.993 24.863 174.298 23.796 172.296 21.662C170.096 19.308 168.996 16.316 168.996 12.686C168.996 9.056 170.096 6.064 172.296 3.71C174.32 1.576 177.015 0.508998 180.381 0.508998ZM180.381 4.667C178.269 4.667 176.608 5.492 175.398 7.142C174.364 8.572 173.847 10.42 173.847 12.686C173.847 15.282 174.518 17.317 175.86 18.791C177.026 20.067 178.533 20.705 180.381 20.705C182.493 20.705 184.143 19.88 185.331 18.23C186.365 16.8 186.882 14.952 186.882 12.686C186.882 10.09 186.211 8.055 184.869 6.581C183.703 5.305 182.207 4.667 180.381 4.667ZM209.308 0.871999H214.192V16.514C214.192 19.088 213.422 21.068 211.882 22.454C210.122 24.06 207.768 24.863 204.82 24.863C201.872 24.863 199.518 24.06 197.758 22.454C196.218 21.068 195.448 19.088 195.448 16.514V0.871999H200.299V16.514C200.299 19.308 201.806 20.705 204.82 20.705C207.812 20.705 209.308 19.308 209.308 16.514V0.871999ZM223.856 16.085V24.5H219.005V0.871999H229.433C232.073 0.871999 234.042 1.587 235.34 3.017C236.484 4.271 237.056 5.998 237.056 8.198C237.056 10.772 236.33 12.774 234.878 14.204C233.602 15.458 231.952 16.085 229.928 16.085H223.856ZM223.856 12.026H228.377C230.929 12.026 232.205 10.849 232.205 8.495C232.205 6.119 230.929 4.931 228.377 4.931H223.856V12.026Z" fill="#005AA9"/>
</svg>

<svg xmlns="http://www.w3.org/2000/svg" width="238" height="25" fill="none">
	<path fill="#005AA9"
		d="M16.236 19.748H7.392L5.808 24.5H.858L9.24.871999h5.379L22.803 24.5h-5.016l-1.551-4.752Zm-1.32-4.059-3.069-9.24-3.102 9.24h6.171Zm15.8065.924V24.5h-4.851V.871999h4.851V11.267l9.24-10.395001h5.742L36.2665 11.036 46.6945 24.5h-5.808l-7.722-10.428-2.442 2.541ZM66.5254 8h-4.554c-.154-2.398-1.804-3.597-4.95-3.597-1.254 0-2.255.253-3.003.759-.726.506-1.089 1.188-1.089 2.046 0 .836.308 1.463.924 1.881.616.418 1.804.792 3.564 1.122l3.696.693c2.178.418 3.762 1.133 4.752 2.145.99 1.012 1.485 2.442 1.485 4.29 0 2.53-.968 4.455-2.904 5.775-1.672 1.166-3.927 1.749-6.765 1.749-3.234 0-5.698-.748-7.392-2.244-1.474-1.298-2.277-3.102-2.409-5.412h4.719c.176 2.508 1.947 3.762 5.313 3.762 1.496 0 2.662-.264 3.498-.792.858-.55 1.287-1.298 1.287-2.244 0-.924-.341-1.639-1.023-2.145-.66-.506-1.804-.913-3.432-1.221l-3.3-.627c-2.398-.44-4.114-1.133-5.148-2.079-1.012-.968-1.518-2.354-1.518-4.158 0-2.442.891-4.29 2.673-5.544 1.54-1.1 3.63-1.650002 6.27-1.650002 3.19 0 5.588.726002 7.194 2.178002 1.386 1.276 2.09 3.047 2.112 5.313Zm18.192 11.748h-8.844l-1.584 4.752h-4.95L77.7214.871999h5.379L91.2844 24.5h-5.016l-1.551-4.752Zm-1.32-4.059-3.069-9.24-3.102 9.24h6.171Zm21.7796.066V24.5h-4.851v-8.745L92.4719.871999h5.412L102.702 11.3 107.223.871999h5.412L105.177 15.755Zm36.999-4.125V24.5h-2.904l-.594-3.366c-1.738 2.486-4.103 3.729-7.095 3.729-3.476 0-6.259-1.276-8.349-3.828-1.826-2.244-2.739-5.016-2.739-8.316 0-3.894 1.188-6.974 3.564-9.24 2.068-1.98 4.697-2.970002 7.887-2.970002 3.036 0 5.5.803002 7.392 2.409002 1.628 1.364 2.574 3.168 2.838 5.412h-4.554c-.902-2.442-2.794-3.663-5.676-3.663-2.2 0-3.883.792-5.049 2.376-1.034 1.408-1.551 3.267-1.551 5.577 0 2.552.715 4.587 2.145 6.105 1.232 1.32 2.772 1.98 4.62 1.98 1.958 0 3.564-.715 4.818-2.145.638-.748 1.023-1.705 1.155-2.871h-5.379V11.63h9.471Zm9.493 3.498V24.5h-4.851V.871999h12.672c2.002 0 3.531.539001 4.587 1.617001 1.188 1.21 1.782 2.805 1.782 4.785 0 2.86-1.342 4.807-4.026 5.841 1.518.594 2.442 1.331 2.772 2.211.242.638.418 2.761.528 6.369.022.902.363 1.54 1.023 1.914v.891h-5.214c-.484-.902-.726-2.233-.726-3.993 0-.44.011-.979.033-1.617v-.957c0-1.87-1.001-2.805-3.003-2.805h-5.577Zm0-4.059h5.874c1.232 0 2.09-.198 2.574-.594.594-.506.891-1.342.891-2.508 0-1.122-.297-1.925-.891-2.409-.506-.418-1.364-.627-2.574-.627h-5.874v6.138ZM180.381.508998c3.344 0 6.028 1.067002 8.052 3.201002 2.2 2.31 3.3 5.302 3.3 8.976 0 3.63-1.1 6.622-3.3 8.976-2.002 2.134-4.686 3.201-8.052 3.201-3.388 0-6.083-1.067-8.085-3.201-2.2-2.354-3.3-5.346-3.3-8.976 0-3.63 1.1-6.622 3.3-8.976 2.024-2.134 4.719-3.201002 8.085-3.201002Zm0 4.158002c-2.112 0-3.773.825-4.983 2.475-1.034 1.43-1.551 3.278-1.551 5.544 0 2.596.671 4.631 2.013 6.105 1.166 1.276 2.673 1.914 4.521 1.914 2.112 0 3.762-.825 4.95-2.475 1.034-1.43 1.551-3.278 1.551-5.544 0-2.596-.671-4.631-2.013-6.105-1.166-1.276-2.662-1.914-4.488-1.914ZM209.308.871999h4.884V16.514c0 2.574-.77 4.554-2.31 5.94-1.76 1.606-4.114 2.409-7.062 2.409-2.948 0-5.302-.803-7.062-2.409-1.54-1.386-2.31-3.366-2.31-5.94V.871999h4.851V16.514c0 2.794 1.507 4.191 4.521 4.191 2.992 0 4.488-1.397 4.488-4.191V.871999ZM223.856 16.085V24.5h-4.851V.871999h10.428c2.64 0 4.609.715001 5.907 2.145001 1.144 1.254 1.716 2.981 1.716 5.181 0 2.574-.726 4.576-2.178 6.006-1.276 1.254-2.926 1.881-4.95 1.881h-6.072Zm0-4.059h4.521c2.552 0 3.828-1.177 3.828-3.531 0-2.376-1.276-3.564-3.828-3.564h-4.521v7.095Z" />
</svg>
